images/icons/multitasking-view.svg

<?xml version="1.0" encoding="UTF-8" standalone="no"?>
<svg
   xmlns:dc="http://purl.org/dc/elements/1.1/"
   xmlns:cc="http://creativecommons.org/ns#"
   xmlns:rdf="http://www.w3.org/1999/02/22-rdf-syntax-ns#"
   xmlns:svg="http://www.w3.org/2000/svg"
   xmlns="http://www.w3.org/2000/svg"
   xmlns:xlink="http://www.w3.org/1999/xlink"
   id="svg6333"
   height="64"
   width="64"
   version="1.1">
  <defs
     id="defs6335">
    <linearGradient
       id="linearGradient3924-2-2-5-8">
      <stop
         offset="0"
         style="stop-color:#ffffff;stop-opacity:1"
         id="stop3926-9-4-9-6" />
      <stop
         offset="0.06316455"
         style="stop-color:#ffffff;stop-opacity:0.23529412"
         id="stop3928-9-8-6-5" />
      <stop
         offset="0.95056331"
         style="stop-color:#ffffff;stop-opacity:0.15686275"
         id="stop3930-3-5-1-7" />
      <stop
         offset="1"
         style="stop-color:#ffffff;stop-opacity:0.39215687"
         id="stop3932-8-0-4-8" />
    </linearGradient>
    <radialGradient
       gradientTransform="matrix(2.003784,0,0,1.4,27.98813,-17.4)"
       gradientUnits="userSpaceOnUse"
       xlink:href="#linearGradient3688-166-749-4-0-3-8"
       id="radialGradient3337-2-2"
       fy="43.5"
       fx="4.9929786"
       r="2.5"
       cy="43.5"
       cx="4.9929786" />
    <linearGradient
       id="linearGradient3688-166-749-4-0-3-8">
      <stop
         offset="0"
         style="stop-color:#181818;stop-opacity:1"
         id="stop2883-4-0-1-8" />
      <stop
         offset="1"
         style="stop-color:#181818;stop-opacity:0"
         id="stop2885-9-2-9-6" />
    </linearGradient>
    <radialGradient
       gradientTransform="matrix(2.003784,0,0,1.4,-20.01187,-104.4)"
       gradientUnits="userSpaceOnUse"
       xlink:href="#linearGradient3688-464-309-9-2-4-2"
       id="radialGradient3339-1-4"
       fy="43.5"
       fx="4.9929786"
       r="2.5"
       cy="43.5"
       cx="4.9929786" />
    <linearGradient
       id="linearGradient3688-464-309-9-2-4-2">
      <stop
         offset="0"
         style="stop-color:#181818;stop-opacity:1"
         id="stop2889-7-9-6-9" />
      <stop
         offset="1"
         style="stop-color:#181818;stop-opacity:0"
         id="stop2891-6-6-1-7" />
    </linearGradient>
    <linearGradient
       id="linearGradient3702-501-757-8-4-1-1">
      <stop
         offset="0"
         style="stop-color:#181818;stop-opacity:0"
         id="stop2895-8-9-9-1" />
      <stop
         offset="0.5"
         style="stop-color:#181818;stop-opacity:1"
         id="stop2897-7-8-7-7" />
      <stop
         offset="1"
         style="stop-color:#181818;stop-opacity:0"
         id="stop2899-4-5-1-5" />
    </linearGradient>
    <linearGradient
       gradientUnits="userSpaceOnUse"
       xlink:href="#linearGradient3702-501-757-8-4-1-1"
       id="linearGradient6394"
       y2="39.999443"
       x2="25.058096"
       y1="47.027729"
       x1="25.058096" />
    <linearGradient
       id="linearGradient5803-6">
      <stop
         id="stop5805-7"
         style="stop-color:#ffffff;stop-opacity:1;"
         offset="0" />
      <stop
         id="stop5807-8"
         style="stop-color:#e6f4f8;stop-opacity:1;"
         offset="1" />
    </linearGradient>
    <linearGradient
       y2="43"
       x2="23.99999"
       y1="4.999989"
       x1="23.99999"
       gradientTransform="matrix(1.4324324,0,0,1.4362832,-2.378381,-2.4707782)"
       gradientUnits="userSpaceOnUse"
       id="linearGradient3448"
       xlink:href="#linearGradient3924-2-2-5-8" />
    <radialGradient
       r="12.671875"
       fy="9.9571075"
       fx="7.2089825"
       cy="9.9571075"
       cx="7.7392125"
       gradientTransform="matrix(0,8.4616298,-16.443533,0,196.90204,-80.463829)"
       gradientUnits="userSpaceOnUse"
       id="radialGradient3422-5"
       xlink:href="#linearGradient2867-449-88-871-390-598-476-591-434-148-57-177-8-3-5-6" />
    <linearGradient
       id="linearGradient2867-449-88-871-390-598-476-591-434-148-57-177-8-3-5-6">
      <stop
         id="stop3750-1-0-6-9"
         style="stop-color:#90dbec;stop-opacity:1"
         offset="0" />
      <stop
         id="stop3752-3-7-8-3"
         style="stop-color:#55c1ec;stop-opacity:1"
         offset="0.26238" />
      <stop
         id="stop3754-1-8-5-8"
         style="stop-color:#3689e6;stop-opacity:1"
         offset="0.704952" />
      <stop
         id="stop3756-1-6-3-7"
         style="stop-color:#2b63a0;stop-opacity:1"
         offset="1" />
    </linearGradient>
    <linearGradient
       y2="54.780239"
       x2="167.98311"
       y1="13.398731"
       x1="167.98311"
       gradientTransform="matrix(0.99526986,0,0,0.94787606,-130.07701,-0.5191699)"
       gradientUnits="userSpaceOnUse"
       id="linearGradient3512"
       xlink:href="#linearGradient5803-6" />
  </defs>
  <metadata
     id="metadata6338">
    <rdf:RDF>
      <cc:Work
         rdf:about="">
        <dc:format>image/svg+xml</dc:format>
        <dc:type
           rdf:resource="http://purl.org/dc/dcmitype/StillImage" />
        <dc:title />
      </cc:Work>
    </rdf:RDF>
  </metadata>
  <g
     transform="matrix(1.5789502,0,0,0.7142857,-5.894751,27.928572)"
     id="g3712-8-2-4-4"
     style="opacity:0.6">
    <rect
       width="5"
       height="7"
       x="38"
       y="40"
       id="rect2801-5-5-7-9"
       style="fill:url(#radialGradient3337-2-2);fill-opacity:1;stroke:none" />
    <rect
       width="5"
       height="7"
       x="-10"
       y="-47"
       transform="scale(-1,-1)"
       id="rect3696-3-0-3-7"
       style="fill:url(#radialGradient3339-1-4);fill-opacity:1;stroke:none" />
    <rect
       width="28"
       height="7.0000005"
       x="10"
       y="40"
       id="rect3700-5-6-8-4"
       style="fill:url(#linearGradient6394);fill-opacity:1;stroke:none" />
  </g>
  <rect
     width="55"
     height="55"
     rx="3"
     ry="3"
     x="4.4999986"
     y="4.5000019"
     id="rect5505-21-3-8-5-2"
     style="color:#000000;fill:url(#radialGradient3422-5);fill-opacity:1;fill-rule:nonzero;stroke:none;stroke-width:0.99999994000000003;marker:none;visibility:visible;display:inline;overflow:visible;enable-background:accumulate" />
  <rect
     width="53"
     height="53.142479"
     rx="2"
     ry="2"
     x="5.4999986"
     y="5.4287739"
     id="rect6741-5-0-2-3"
     style="opacity:0.5;fill:none;stroke:url(#linearGradient3448);stroke-width:1;stroke-linecap:round;stroke-linejoin:round;stroke-miterlimit:4;stroke-opacity:1;stroke-dasharray:none;stroke-dashoffset:0" />
  <rect
     width="55"
     height="55"
     rx="3"
     ry="3"
     x="4.4999986"
     y="4.5000019"
     id="rect5505-21-3-8-9-1-1"
     style="opacity:0.40000000000000002;color:#000000;fill:none;stroke:#003164;stroke-width:1;stroke-linecap:round;stroke-linejoin:round;stroke-miterlimit:4;stroke-opacity:1;stroke-dasharray:none;stroke-dashoffset:0;marker:none;visibility:visible;display:inline;overflow:visible;enable-background:accumulate" />
  <path
     id="path4014"
     d="M 11.40625,12 C 10.106455,12 9,13.031423 9,14.34375 l 0,13.3125 C 9,28.968577 10.106456,30 11.40625,30 l 18.1875,0 C 30.893544,30 32,28.968577 32,27.65625 l 0,-13.3125 C 32,13.031423 30.893545,12 29.59375,12 z m 25.8125,2 C 36.529411,14 35.935094,14.366879 35.5625,14.84375 35.189906,15.320621 35,15.917044 35,16.5625 l 0,13.875 c 0,0.645456 0.189906,1.241879 0.5625,1.71875 C 35.935094,32.633121 36.529411,33 37.21875,33 l 15.5625,0 c 0.689339,0 1.283656,-0.36688 1.65625,-0.84375 C 54.810094,31.67938 55,31.082956 55,30.4375 l 0,-13.875 C 55,15.917044 54.810094,15.32062 54.4375,14.84375 54.064906,14.36688 53.470589,14 52.78125,14 z M 20.65625,35 C 19.218924,35 18,36.131138 18,37.5625 l 0,13.875 C 18,52.868862 19.218924,54 20.65625,54 l 21.6875,0 C 43.781076,54 45,52.868862 45,51.4375 l 0,-13.875 C 45,36.131138 43.781076,35 42.34375,35 z"
     style="opacity:0.15;color:#000000;fill:#0974ae;fill-opacity:1;fill-rule:nonzero;stroke:none;stroke-width:1;marker:none;visibility:visible;display:inline;overflow:visible;enable-background:accumulate" />
  <path
     id="path3508-2"
     d="M 11.40625,13 C 10.63065,13 10,13.605084 10,14.34375 l 0,13.3125 C 10,28.394917 10.63065,29 11.40625,29 l 18.1875,0 C 30.36935,29 31,28.394917 31,27.65625 l 0,-13.3125 C 31,13.605084 30.36935,13 29.59375,13 l -18.1875,0 z m 25.8125,2 C 36.55395,15 36,15.706318 36,16.5625 l 0,13.875 C 36,31.293682 36.55395,32 37.21875,32 l 15.5625,0 C 53.446049,32 54,31.293682 54,30.4375 l 0,-13.875 C 54,15.706318 53.446049,15 52.78125,15 l -15.5625,0 z M 20.65625,36 C 19.732917,36 19,36.706318 19,37.5625 l 0,13.875 C 19,52.293682 19.732917,53 20.65625,53 l 21.6875,0 C 43.267083,53 44,52.293682 44,51.4375 l 0,-13.875 C 44,36.706318 43.267083,36 42.34375,36 l -21.6875,0 z"
     style="opacity:0.3;color:#000000;fill:#0935ae;fill-opacity:1;fill-rule:nonzero;stroke:none;stroke-width:1;marker:none;visibility:visible;display:inline;overflow:visible;enable-background:accumulate" />
  <path
     id="path3508"
     d="M 11.40625 12 C 10.63065 12 10 12.605084 10 13.34375 L 10 26.65625 C 10 27.394917 10.63065 28 11.40625 28 L 29.59375 28 C 30.36935 28 31 27.394917 31 26.65625 L 31 13.34375 C 31 12.605084 30.36935 12 29.59375 12 L 11.40625 12 z M 37.21875 14 C 36.55395 14 36 14.706318 36 15.5625 L 36 29.4375 C 36 30.293682 36.55395 31 37.21875 31 L 52.78125 31 C 53.446049 31 54 30.293682 54 29.4375 L 54 15.5625 C 54 14.706318 53.446049 14 52.78125 14 L 37.21875 14 z M 20.65625 35 C 19.732917 35 19 35.706318 19 36.5625 L 19 50.4375 C 19 51.293682 19.732917 52 20.65625 52 L 42.34375 52 C 43.267083 52 44 51.293682 44 50.4375 L 44 36.5625 C 44 35.706318 43.267083 35 42.34375 35 L 20.65625 35 z "
     style="color:#000000;fill:url(#linearGradient3512);fill-opacity:1;fill-rule:nonzero;stroke:none;stroke-width:1;marker:none;visibility:visible;display:inline;overflow:visible;enable-background:accumulate" />
</svg>

<svg xmlns="http://www.w3.org/2000/svg" xmlns:xlink="http://www.w3.org/1999/xlink" height="64" width="64">
    <defs>
        <linearGradient id="d">
            <stop offset="0" stop-color="#fff"/>
            <stop offset=".063" stop-color="#fff" stop-opacity=".235"/>
            <stop offset=".951" stop-color="#fff" stop-opacity=".157"/>
            <stop offset="1" stop-color="#fff" stop-opacity=".392"/>
        </linearGradient>
        <radialGradient gradientTransform="matrix(2.00378 0 0 1.4 27.988 -17.4)" gradientUnits="userSpaceOnUse" xlink:href="#a" id="g" fy="43.5" fx="4.993" r="2.5" cy="43.5" cx="4.993"/>
        <linearGradient id="a">
            <stop offset="0" stop-color="#181818"/>
            <stop offset="1" stop-color="#181818" stop-opacity="0"/>
        </linearGradient>
        <radialGradient gradientTransform="matrix(2.00378 0 0 1.4 -20.012 -104.4)" gradientUnits="userSpaceOnUse" xlink:href="#b" id="h" fy="43.5" fx="4.993" r="2.5" cy="43.5" cx="4.993"/>
        <linearGradient id="b">
            <stop offset="0" stop-color="#181818"/>
            <stop offset="1" stop-color="#181818" stop-opacity="0"/>
        </linearGradient>
        <linearGradient id="c">
            <stop offset="0" stop-color="#181818" stop-opacity="0"/>
            <stop offset=".5" stop-color="#181818"/>
            <stop offset="1" stop-color="#181818" stop-opacity="0"/>
        </linearGradient>
        <linearGradient gradientUnits="userSpaceOnUse" xlink:href="#c" id="i" y2="39.999" x2="25.058" y1="47.028" x1="25.058"/>
        <linearGradient id="f">
            <stop offset="0" stop-color="#fff"/>
            <stop offset="1" stop-color="#e6f4f8"/>
        </linearGradient>
        <linearGradient y2="43" x2="24" y1="5" x1="24" gradientTransform="matrix(1.43243 0 0 1.43628 -2.378 -2.47)" gradientUnits="userSpaceOnUse" id="k" xlink:href="#d"/>
        <radialGradient r="12.672" fy="9.957" fx="7.209" cy="9.957" cx="7.739" gradientTransform="matrix(0 8.46163 -16.44353 0 196.902 -80.464)" gradientUnits="userSpaceOnUse" id="j" xlink:href="#e"/>
        <linearGradient id="e">
            <stop offset="0" stop-color="#90dbec"/>
            <stop offset=".262" stop-color="#55c1ec"/>
            <stop offset=".705" stop-color="#3689e6"/>
            <stop offset="1" stop-color="#2b63a0"/>
        </linearGradient>
        <linearGradient y2="54.78" x2="167.983" y1="13.399" x1="167.983" gradientTransform="matrix(.99527 0 0 .94788 -130.077 -.52)" gradientUnits="userSpaceOnUse" id="l" xlink:href="#f"/>
    </defs>
    <g opacity=".6">
        <path fill="url(#g)" d="M38 40h5v7h-5z" transform="matrix(1.57895 0 0 .71429 -5.895 27.929)"/>
        <path transform="matrix(-1.57895 0 0 -.71429 -5.895 27.929)" fill="url(#h)" d="M-10-47h5v7h-5z"/>
        <path fill="url(#i)" d="M10 40h28v7H10z" transform="matrix(1.57895 0 0 .71429 -5.895 27.929)"/>
    </g>
    <rect width="55" height="55" rx="3" ry="3" x="4.5" y="4.5" style="marker:none" color="#000" fill="url(#j)" overflow="visible"/>
    <rect width="53" height="53.142" rx="2" ry="2" x="5.5" y="5.429" opacity=".5" fill="none" stroke="url(#k)" stroke-linecap="round" stroke-linejoin="round"/>
    <rect width="55" height="55" rx="3" ry="3" x="4.5" y="4.5" style="marker:none" opacity=".4" color="#000" fill="none" stroke="#003164" stroke-linecap="round" stroke-linejoin="round" overflow="visible"/>
    <path d="M11.406 12C10.106 12 9 13.031 9 14.344v13.312C9 28.97 10.106 30 11.406 30h18.188c1.3 0 2.406-1.031 2.406-2.344V14.344C32 13.03 30.894 12 29.594 12zm25.813 2c-.69 0-1.284.367-1.657.844-.372.477-.562 1.073-.562 1.719v13.875c0 .645.19 1.241.563 1.718.372.477.966.844 1.656.844H52.78c.69 0 1.284-.367 1.657-.844.372-.477.562-1.073.562-1.718V16.563c0-.646-.19-1.242-.563-1.72-.372-.476-.966-.843-1.656-.843zM20.656 35C19.22 35 18 36.131 18 37.563v13.874C18 52.87 19.219 54 20.656 54h21.688C43.78 54 45 52.869 45 51.437V37.563C45 36.13 43.781 35 42.344 35z" style="marker:none" opacity=".15" color="#000" fill="#0974ae" overflow="visible"/>
    <path d="M11.406 13c-.775 0-1.406.605-1.406 1.344v13.312c0 .739.63 1.344 1.406 1.344h18.188c.775 0 1.406-.605 1.406-1.344V14.344c0-.739-.63-1.344-1.406-1.344H11.406zm25.813 2c-.665 0-1.219.706-1.219 1.563v13.875c0 .856.554 1.562 1.219 1.562H52.78c.665 0 1.219-.706 1.219-1.563V16.563c0-.856-.554-1.562-1.219-1.562H37.22zM20.656 36c-.923 0-1.656.706-1.656 1.563v13.874c0 .857.733 1.563 1.656 1.563h21.688c.923 0 1.656-.706 1.656-1.563V37.563c0-.857-.733-1.563-1.656-1.563H20.656z" style="marker:none" opacity=".3" color="#000" fill="#0935ae" overflow="visible"/>
    <path d="M11.406 12c-.775 0-1.406.605-1.406 1.344v13.312c0 .739.63 1.344 1.406 1.344h18.188c.775 0 1.406-.605 1.406-1.344V13.344c0-.739-.63-1.344-1.406-1.344H11.406zm25.813 2c-.665 0-1.219.706-1.219 1.563v13.874c0 .857.554 1.563 1.219 1.563H52.78c.665 0 1.219-.706 1.219-1.563V15.563c0-.856-.554-1.562-1.219-1.562H37.22zM20.656 35c-.923 0-1.656.706-1.656 1.563v13.874c0 .857.733 1.563 1.656 1.563h21.688c.923 0 1.656-.706 1.656-1.563V36.563c0-.857-.733-1.563-1.656-1.563H20.656z" style="marker:none" color="#000" fill="url(#l)" overflow="visible"/>
</svg>
